resources/icons/16px/small-square.svg

<svg width="16" height="16" viewBox="0 0 16 16" fill="none" xmlns="http://www.w3.org/2000/svg">
<path d="M5 5V11H11V5H5ZM4 3H12C12.5523 3 13 3.44772 13 4V12C13 12.5523 12.5523 13 12 13H4C3.44772 13 3 12.5523 3 12V4C3 3.44772 3.44772 3 4 3Z" fill="black"/>
</svg>

<svg xmlns="http://www.w3.org/2000/svg" viewBox="0 0 16 16">
  <path d="M5 5v6h6V5zM4 3h8a1 1 0 0 1 1 1v8a1 1 0 0 1-1 1H4a1 1 0 0 1-1-1V4a1 1 0 0 1 1-1"/>
</svg>
